credit-card-refund-outline.svg

<svg fill="currentColor" viewBox="0 0 24 24"><path d="M18 11H6a2 2 0 0 0-2 2v8a2 2 0 0 0 2 2h12a2 2 0 0 0 2-2v-8a2 2 0 0 0-2-2m0 10H6v-4h12zm0-6H6v-2h12zM17 5v5h-1.5V6.5H9.88l2.42 2.43L11.24 10 7 5.75l4.24-4.25 1.06 1.07L9.88 5z"/></svg>

<svg  viewBox="0 0 24 24" fill="currentColor"><path  d="M18,11H6A2,2 0 0,0 4,13V21A2,2 0 0,0 6,23H18A2,2 0 0,0 20,21V13A2,2 0 0,0 18,11M18,21H6V17H18V21M18,15H6V13H18V15M17,5V10H15.5V6.5H9.88L12.3,8.93L11.24,10L7,5.75L11.24,1.5L12.3,2.57L9.88,5H17Z"/></svg>
